X:1
T:Landås, CMD
T:André Grétry (1741-1813); arr W. Kirkpatrick
T:Landås, CMD
T:Public Domain
C:Andr&#233; Gr&#233;try (1741-1813); arr W. Kirkpatrick
Z:Public Domain
%%score ( 1 2 ) ( 3 4 )
L:1/8
M:3/4
K:Ab
V:1 treble 
V:2 treble 
V:3 bass 
V:4 bass 
V:1
 [CE]2 | [CE][DF] [CE]2 [CA]2 | [EG][DF] [DF]2 [EF]2 | [Fd][FB] [EA]2 [EG]2 | [EA]4 [CE]2 | %5
 [CE][DF] [CE]2 [CA]2 | [EG][DF] [DF]2 [EF]2 | [Fd][FB] [EA]2 [EG]2 | [EA]4 E2 | %9
 [EA][Ac] [Ae]2 [Ec]2 | [Ec][EB] [EB]2 [Ec]2 | [EA][EG] [DF]2 [FB]2 | (A2 G2) [DE]2 | %13
 [CE][DF] [CE]2 [CA]2 | [EG][DF] [DF]2 [EF]2 | [Fd][FB] [EA]2 [EG]2 | [EA]4 |] %17
V:2
 x2 | x6 | x6 | x6 | x6 | x6 | x6 | x6 | x4 E2 | x6 | x6 | x6 | E4 x2 | x6 | x6 | x6 | x4 |] %17
V:3
 [A,,A,]2 | [A,,A,][A,,A,] [A,,A,]2 [A,,A,]2 | [D,A,][D,A,] [D,A,]2 [C,=A,]2 | %3
 [B,,B,][B,,D] [E,C]2 [E,B,]2 | [A,C]4 [A,,A,]2 | [A,,A,][A,,A,] [A,,A,]2 [A,,A,]2 | %6
 [D,A,][D,A,] [D,A,]2 [C,=A,]2 | [B,,B,][B,,D] [E,C]2 [E,B,]2 | [A,C]4 [A,C]2 | %9
 [A,C][A,E] [A,C]2 A,2 | [E,A,][E,G,] [E,G,]2 A,2 | [C,A,][C,A,] [D,A,]2 [D,D]2 | %12
 (C2 B,2) [E,G,]2 | [A,,A,][A,,A,] [A,,A,]2 [A,,A,]2 | [D,A,][D,A,] [D,A,]2 [C,=A,]2 | %15
 [B,,B,][B,,D] [C,C]2 [E,D]2 | [A,C]4 |] %17
V:4
 x2 | x6 | x6 | x6 | x6 | x6 | x6 | x6 | x6 | x4 A,2 | x4 A,2 | x6 | E,4 x2 | x6 | x6 | x6 | x4 |] %17

